frontend/public/svg/interface/download.svg

<svg width="158" height="146" viewBox="0 0 158 146" fill="none" xmlns="http://www.w3.org/2000/svg">
<g clip-path="url(#clip0)">
<path d="M70.5399 108.42C69.3338 107.513 68.0817 106.668 66.79 105.887L66.5124 105.725C63.2036 103.8 59.7827 101.808 56.3215 100.016C55.4321 99.5562 54.5374 99.0465 53.672 98.5523C51.2995 97.1989 48.8472 95.8003 46.0348 95.1284C45.911 95.0987 45.7812 95.1052 45.6609 95.1472C45.5406 95.1885 45.4349 95.2635 45.3562 95.3636L44.0191 97.0516C43.9434 97.1472 43.8957 97.2622 43.881 97.3837C43.8664 97.5045 43.8854 97.6272 43.9361 97.7377C44.0282 97.9399 44.1047 98.1453 44.18 98.345C44.3355 98.8443 44.5789 99.312 44.8989 99.7262C52.189 108.197 61.1179 115.771 73.8466 124.285C74.6232 124.777 75.4361 125.213 76.2775 125.586C77.3986 126.147 78.6319 126.451 79.8866 126.475C81.5714 126.454 83.192 125.825 84.4467 124.705C84.7153 124.48 84.9891 124.259 85.2628 124.038C85.8532 123.565 86.4631 123.074 87.0236 122.528C88.5696 121.024 90.1227 119.527 91.683 118.036C95.8188 114.066 100.095 109.961 104.095 105.722C106.573 102.979 108.877 100.085 110.993 97.0555C111.699 96.0865 112.405 95.1168 113.123 94.1614L113.203 94.0554C113.618 93.514 114.587 92.2466 113.158 90.7652C113.04 90.6438 112.881 90.5714 112.711 90.5624C110.291 90.4429 108.679 91.8544 107.124 93.2285C106.542 93.7686 105.923 94.2673 105.271 94.7202C102.835 96.3946 100.509 98.2235 98.3094 100.196L97.9078 100.541C96.7835 101.506 95.6982 102.54 94.6485 103.54C93.6455 104.495 92.6075 105.483 91.5487 106.399C90.8195 107.028 90.1344 107.726 89.4726 108.401C88.2361 109.778 86.8134 110.977 85.2447 111.963C85.2356 111.892 85.2272 111.823 85.2187 111.754C85.1311 111.197 85.0864 110.634 85.0844 110.07C85.1876 106.449 85.2998 102.827 85.4218 99.2048C85.6093 93.4204 85.8033 87.4389 85.9311 81.5517C85.9713 79.7112 86.0128 77.8694 86.0563 76.0276C86.4378 59.5541 86.8315 42.526 85.3355 25.7877C84.799 19.7797 83.8888 13.7171 83.0091 7.8519L82.6399 5.38326C82.4154 4.44906 82.0035 3.56993 81.428 2.79919C81.0764 2.23457 80.6781 1.59443 80.2324 0.77786C80.172 0.667915 80.0825 0.577258 79.9729 0.516044C79.8632 0.45483 79.7387 0.425157 79.6128 0.431506C79.4876 0.437856 79.3663 0.479415 79.2638 0.551373C79.1606 0.623332 79.0802 0.722988 79.0322 0.838425C77.5134 4.44062 77.4641 7.54543 77.4206 10.2839C77.4057 11.2406 77.3914 12.1454 77.3201 13.0434C77.1975 14.5886 77.0482 16.132 76.899 17.674C76.7102 19.6205 76.5156 21.6335 76.38 23.6219C76.1854 26.4857 76.0634 29.3997 75.9466 32.217C75.909 33.1111 75.8707 34.0048 75.8325 34.8988L75.7909 35.8369C75.6411 39.2247 75.4867 42.7273 75.3731 46.1764C75.2687 49.3703 75.1882 52.7459 75.1221 56.7997C75.0793 59.3838 75.0572 61.9716 75.0351 64.5589L75.0027 68.0823C74.991 69.2541 74.9768 70.426 74.9605 71.5979C74.9274 74.1438 74.8957 76.777 74.8957 79.3688C74.8989 82.7029 74.9197 86.6514 75.0429 90.6651C75.0935 92.3267 75.1915 94.0095 75.2869 95.6394C75.3946 97.4832 75.5055 99.3863 75.5464 101.26C75.5717 102.388 75.6644 103.539 75.754 104.651C76.0258 107.03 76.0401 109.432 75.7961 111.814C73.9556 110.825 72.1981 109.69 70.5399 108.42Z" fill="black"/>
<path d="M154.191 82.8574C153.744 82.6106 153.249 82.4626 152.739 82.4239C152.229 82.3858 151.717 82.4581 151.238 82.6351C151.144 82.661 151.057 82.7068 150.984 82.7689C150.91 82.8315 150.851 82.9097 150.81 82.9975C149.077 86.7444 148.595 106.976 148.244 121.748C148.106 127.519 147.995 132.178 147.842 134.431C147.03 134.508 146.264 134.589 145.533 134.667C143.717 134.86 142.147 135.026 140.568 135.063C134.253 135.214 126.785 135.366 119.282 135.366H119.171C114.222 135.366 109.273 135.373 104.323 135.386C88.7155 135.414 72.5763 135.446 56.7109 135.16C47.361 134.991 37.8547 134.392 28.6611 133.812C24.7952 133.568 20.7976 133.316 16.8635 133.102C16.1358 133.045 15.4119 132.948 14.6953 132.809C14.4358 132.765 14.1699 132.72 13.8902 132.676C13.839 132.333 13.7844 131.996 13.7306 131.661C13.552 130.672 13.4266 129.674 13.3549 128.671C13.1928 125.566 13.0585 122.46 12.9236 119.352C12.6887 113.939 12.4461 108.341 12.0555 102.841C11.6403 96.9761 11.0487 87.1269 10.734 81.7804C10.68 80.7727 10.2445 79.8217 9.51493 79.1208C8.78547 78.4199 7.81622 78.02 6.80248 78.0019C5.76165 77.9799 4.75243 78.3578 3.98434 79.0575C3.21626 79.7578 2.74829 80.7248 2.67764 81.7591C2.03731 91.7162 0.623654 116.375 1.32302 130.28L1.36784 131.236C1.39112 133.382 1.6372 135.521 2.10221 137.617C3.06562 141.327 5.29413 142.991 9.55198 143.181C12.9314 143.333 16.3101 143.512 19.6882 143.691C25.0729 143.976 30.6451 144.272 36.131 144.446C48.1596 144.834 59.051 145.054 69.4272 145.129C74.0522 145.163 78.6766 145.205 83.3016 145.257C91.5928 145.343 100.003 145.431 108.457 145.431C119.85 145.431 131.324 145.272 142.687 144.74C145.152 144.671 147.609 144.442 150.044 144.055C153.921 143.366 156.099 140.985 156.341 137.169C156.435 135.68 156.557 134.072 156.681 132.447C156.848 130.243 157.022 127.964 157.13 125.881C157.052 111.441 155.603 86.7373 155.324 84.7993C155.288 84.413 155.169 84.0396 154.973 83.7043C154.777 83.369 154.51 83.0796 154.191 82.8574Z" fill="black"/>
</g>
<defs>
<clipPath id="clip0">
<rect width="157" height="146" fill="white" transform="translate(0.777344)"/>
</clipPath>
</defs>
</svg>

<svg xmlns="http://www.w3.org/2000/svg" width="158" height="146" fill="none" viewBox="0 0 158 146"><g fill="#000" clip-path="url(#a)"><path d="M70.54 108.42a45 45 0 0 0-3.75-2.533l-.278-.162c-3.308-1.925-6.73-3.917-10.19-5.709-.89-.46-1.785-.97-2.65-1.464-2.372-1.353-4.825-2.752-7.637-3.424a.66.66 0 0 0-.679.236l-1.337 1.688a.66.66 0 0 0-.083.686c.092.202.169.407.244.607.156.5.399.967.719 1.381 7.29 8.471 16.219 16.045 28.948 24.559.776.492 1.59.928 2.43 1.301a8.4 8.4 0 0 0 3.61.889 6.98 6.98 0 0 0 4.56-1.77q.404-.337.816-.667c.59-.473 1.2-.964 1.76-1.51a724 724 0 0 1 4.66-4.492c4.136-3.97 8.412-8.075 12.412-12.314a89 89 0 0 0 6.898-8.666c.706-.97 1.412-1.94 2.13-2.895l.08-.106c.415-.541 1.384-1.808-.045-3.29a.67.67 0 0 0-.447-.203c-2.42-.12-4.032 1.292-5.587 2.666a17 17 0 0 1-1.853 1.492 69 69 0 0 0-6.962 5.476l-.401.345c-1.124.965-2.21 1.999-3.26 2.999-1.002.955-2.04 1.943-3.1 2.859-.728.629-1.414 1.327-2.075 2.002a20 20 0 0 1-4.228 3.562l-.026-.209a11 11 0 0 1-.135-1.684q.155-5.432.338-10.865c.187-5.785.381-11.766.51-17.653q.059-2.761.124-5.524c.382-16.474.776-33.502-.72-50.24-.537-6.008-1.447-12.07-2.327-17.936l-.37-2.469a7.1 7.1 0 0 0-1.21-2.583A39 39 0 0 1 80.232.778a.667.667 0 0 0-1.2.06c-1.519 3.603-1.568 6.707-1.611 9.446-.015.957-.03 1.861-.1 2.76a269 269 0 0 1-.422 4.63c-.189 1.947-.383 3.96-.519 5.948-.195 2.864-.317 5.778-.433 8.595l-.115 2.682-.041.938c-.15 3.388-.304 6.89-.418 10.34a640 640 0 0 0-.25 10.623c-.044 2.584-.066 5.172-.088 7.759l-.032 3.523a896 896 0 0 1-.043 3.516 603 603 0 0 0-.064 7.77c.003 3.335.024 7.283.147 11.297.05 1.662.148 3.344.244 4.974.108 1.844.218 3.747.26 5.621.025 1.128.117 2.279.207 3.391.272 2.379.286 4.781.042 7.163a39 39 0 0 1-5.256-3.394"/><path d="M154.191 82.857a3.56 3.56 0 0 0-2.953-.222.67.67 0 0 0-.428.362c-1.733 3.747-2.215 23.979-2.566 38.751-.138 5.771-.249 10.43-.402 12.683-.812.077-1.578.158-2.309.236-1.816.193-3.386.359-4.965.396-6.315.151-13.783.303-21.286.303h-.111q-7.423 0-14.848.02c-15.607.028-31.747.06-47.612-.226-9.35-.169-18.856-.768-28.05-1.348-3.866-.244-7.863-.496-11.798-.71a19 19 0 0 1-2.168-.293c-.26-.044-.525-.089-.805-.133q-.078-.513-.16-1.015a28 28 0 0 1-.375-2.99c-.162-3.105-.296-6.211-.431-9.319-.235-5.413-.478-11.011-.868-16.511-.416-5.865-1.007-15.714-1.322-21.06a4 4 0 0 0-1.22-2.66 4.057 4.057 0 0 0-5.53-.063 4.03 4.03 0 0 0-1.306 2.701c-.64 9.957-2.054 34.616-1.355 48.521l.045.956c.023 2.146.27 4.285.734 6.381.964 3.71 3.192 5.374 7.45 5.564 3.38.152 6.758.331 10.136.51 5.385.285 10.957.581 16.443.755 12.029.388 22.92.608 33.296.683q6.938.05 13.875.128c8.29.086 16.701.174 25.155.174 11.393 0 22.867-.159 34.23-.691a57 57 0 0 0 7.357-.685c3.877-.689 6.055-3.07 6.297-6.886.094-1.489.216-3.097.34-4.722.167-2.204.341-4.483.449-6.566-.078-14.44-1.527-39.144-1.806-41.082a2.66 2.66 0 0 0-1.133-1.942"/></g><defs><clipPath id="a"><path fill="#fff" d="M.777 0h157v146h-157z"/></clipPath></defs></svg>
